launcher/android/assets/skins/day/svg/map-state-free.svg

<svg enable-background="new 0 0 78.13 78.25" height="78.25" viewBox="0 0 78.13 78.25" width="78.125" xmlns="http://www.w3.org/2000/svg" xmlns:xlink="http://www.w3.org/1999/xlink"><linearGradient id="a" gradientTransform="matrix(0 1 -1 0 -1.847377 -2.847377)" gradientUnits="objectBoundingBox" x1=".5" x2="6.19475" y1="-2.34738" y2="-2.34738"><stop offset=".427907" stop-color="#eeeaea"/><stop offset=".576744" stop-color="#fff" stop-opacity="0"/></linearGradient><linearGradient id="b" gradientTransform="matrix(0 -1 1 0 -.51883 1.518766)" gradientUnits="objectBoundingBox" x1=".499968" x2="1.53738" y1="1.0188" y2="1.0188"><stop offset="0" stop-color="#9bc049"/><stop offset="1" stop-color="#23271b"/></linearGradient><g stroke-linejoin="round"><path d="m11.5.499988h55.125c6.0751 0 11 4.924862 11 11.000012v55.25c0 6.0751-4.9249 11-11 11h-55.125c-6.07513 0-11-4.9249-11-11v-55.25c0-6.07515 4.92487-11.000012 11-11.000012z" fill="#8c9e64" stroke="#000"/><path d="m65.9046.85419h-53.8619c-5.48902 0-10.01701 4.21122-10.66769 9.64901 1.28571 2.512 3.85749 4.226 6.82042 4.226h61.92287c2.7386 0 5.1431-1.4643 6.5067-3.6696-.3978-5.70421-5.0455-10.20541-10.7204-10.20541z" fill="url(#a)" stroke-width=".2"/><path d="m21.0325 22.115h-8.12v7h7.56v2.52h-7.56v9.24h-2.8v-21.28h10.92z"/><path d="m40.3525 40.875h-3.36l-3.4169-5.9106c-.6825-1.1813-1.3074-1.9848-1.8747-2.4106-.5673-.4259-1.2447-.6388-2.0322-.6388h-1.9162v8.96h-2.8v-21.28h6.3744c2.0329 0 3.6254.4973 4.7775 1.4919s1.7281 2.3858 1.7281 4.1737c0 2.9371-1.5473 4.8432-4.6419 5.7182v.07c.5834.2479 1.0872.6015 1.5116 1.0609s.9734 1.2462 1.6472 2.3603zm-12.6-18.76v7.28h3.1587c1.2221 0 2.2145-.3551 2.9772-1.0653s1.1441-1.6413 1.1441-2.7934c0-1.0734-.3478-1.9119-1.0434-2.5157-.6957-.6037-1.7085-.9056-3.0385-.9056z"/><path d="m54.6325 40.875h-11.48v-21.28h10.92v2.52h-8.12v6.72h7.56v2.52h-7.56v7h8.68z"/><path d="m70.0325 40.875h-11.48v-21.28h10.92v2.52h-8.12v6.72h7.56v2.52h-7.56v7h8.68z"/><path d="m11.6514 56.786h54.8219c1.4299 0 2.5891 1.1592 2.5891 2.589l0 0c0 1.4298-1.1592 2.589-2.5891 2.589h-54.8219c-1.4298 0-2.589-1.1592-2.589-2.589l0 0c0-1.4298 1.1592-2.589 2.589-2.589z" fill="url(#b)" stroke-width=".2"/></g></svg>

﻿<?xml version="1.0" encoding="utf-8"?>
<!DOCTYPE svg PUBLIC "-//W3C//DTD SVG 1.1//EN" "http://www.w3.org/Graphics/SVG/1.1/DTD/svg11.dtd">
<svg xmlns="http://www.w3.org/2000/svg" xmlns:xlink="http://www.w3.org/1999/xlink" version="1.1" baseProfile="full" width="78.125" height="78.25" viewBox="0 0 78.13 78.25" enable-background="new 0 0 78.13 78.25" xml:space="preserve">
	<g>
		<path fill="#8C9E64" fill-opacity="1" stroke-linejoin="round" stroke="#000000" stroke-opacity="1" d="M 11.5,0.499988L 66.625,0.499988C 72.7001,0.499988 77.625,5.42485 77.625,11.5L 77.625,66.75C 77.625,72.8251 72.7001,77.75 66.625,77.75L 11.5,77.75C 5.42487,77.75 0.5,72.8251 0.5,66.75L 0.5,11.5C 0.5,5.42485 5.42487,0.499988 11.5,0.499988 Z "/>
		<linearGradient id="SVGID_Fill1_" gradientUnits="objectBoundingBox" x1="0.5" y1="-2.34738" x2="6.19475" y2="-2.34738" gradientTransform="rotate(90.000000 0.500000 -2.347377)">
			<stop offset="0.427907" stop-color="#EEEAEA" stop-opacity="1"/>
			<stop offset="0.576744" stop-color="#FFFFFF" stop-opacity="0"/>
		</linearGradient>
		<path fill="url(#SVGID_Fill1_)" stroke-width="0.2" stroke-linejoin="round" d="M 65.9046,0.85419L 12.0427,0.85419C 6.55368,0.85419 2.02569,5.06541 1.37501,10.5032C 2.66072,13.0152 5.2325,14.7292 8.19543,14.7292L 70.1183,14.7292C 72.8569,14.7292 75.2614,13.2649 76.625,11.0596C 76.2272,5.35539 71.5795,0.85419 65.9046,0.85419 Z "/>
	</g>
	<g>
		<path fill="#000000" fill-opacity="1" stroke-linejoin="round" d="M 21.0325,22.115L 12.9125,22.115L 12.9125,29.115L 20.4725,29.115L 20.4725,31.635L 12.9125,31.635L 12.9125,40.875L 10.1125,40.875L 10.1125,19.595L 21.0325,19.595L 21.0325,22.115 Z "/>
		<path fill="#000000" fill-opacity="1" stroke-linejoin="round" d="M 40.3525,40.875L 36.9925,40.875L 33.5756,34.9644C 32.8931,33.7831 32.2682,32.9796 31.7009,32.5538C 31.1336,32.1279 30.4562,31.915 29.6687,31.915L 27.7525,31.915L 27.7525,40.875L 24.9525,40.875L 24.9525,19.595L 31.3269,19.595C 33.3598,19.595 34.9523,20.0923 36.1044,21.0869C 37.2565,22.0815 37.8325,23.4727 37.8325,25.2606C 37.8325,28.1977 36.2852,30.1038 33.1906,30.9788L 33.1906,31.0488C 33.774,31.2967 34.2778,31.6503 34.7022,32.1097C 35.1266,32.5691 35.6756,33.3559 36.3494,34.47L 40.3525,40.875 Z M 27.7525,22.115L 27.7525,29.395L 30.9112,29.395C 32.1333,29.395 33.1257,29.0399 33.8884,28.3297C 34.6511,27.6195 35.0325,26.6884 35.0325,25.5363C 35.0325,24.4629 34.6847,23.6244 33.9891,23.0206C 33.2934,22.4169 32.2806,22.115 30.9506,22.115L 27.7525,22.115 Z "/>
		<path fill="#000000" fill-opacity="1" stroke-linejoin="round" d="M 54.6325,40.875L 43.1525,40.875L 43.1525,19.595L 54.0725,19.595L 54.0725,22.115L 45.9525,22.115L 45.9525,28.835L 53.5125,28.835L 53.5125,31.355L 45.9525,31.355L 45.9525,38.355L 54.6325,38.355L 54.6325,40.875 Z "/>
		<path fill="#000000" fill-opacity="1" stroke-linejoin="round" d="M 70.0325,40.875L 58.5525,40.875L 58.5525,19.595L 69.4725,19.595L 69.4725,22.115L 61.3525,22.115L 61.3525,28.835L 68.9125,28.835L 68.9125,31.355L 61.3525,31.355L 61.3525,38.355L 70.0325,38.355L 70.0325,40.875 Z "/>
	</g>
	<linearGradient id="SVGID_Fill2_" gradientUnits="objectBoundingBox" x1="0.499968" y1="1.0188" x2="1.53738" y2="1.0188" gradientTransform="rotate(-90.000000 0.499968 1.018798)">
		<stop offset="0" stop-color="#9BC049" stop-opacity="1"/>
		<stop offset="1" stop-color="#23271B" stop-opacity="1"/>
	</linearGradient>
	<path fill="url(#SVGID_Fill2_)" stroke-width="0.2" stroke-linejoin="round" d="M 11.6514,56.786L 66.4733,56.786C 67.9032,56.786 69.0624,57.9452 69.0624,59.375L 69.0624,59.375C 69.0624,60.8048 67.9032,61.964 66.4733,61.964L 11.6514,61.964C 10.2216,61.964 9.0624,60.8048 9.0624,59.375L 9.0624,59.375C 9.0624,57.9452 10.2216,56.786 11.6514,56.786 Z "/>
</svg>
